!!!COM: Palestrina, Giovanni Perluigi da
!!!OPR: Ad coenam Agni
!!!OTL: Agnus I
**kern	**kern	**kern	**kern	**kern
*Ibass	*Itenor	*Icalto	*Icalto	*Icant
!Bassus	!Tenor	!Altus 2	!Altus 1	!Cantus
*clefF4	*clefGv2	*clefG2	*clefG2	*clefG2
*k[]	*k[]	*k[]	*k[]	*k[]
*G:mix	*G:mix	*G:mix	*G:mix	*G:mix
*M4/2	*M4/2	*M4/2	*M4/2	*M4/2
=1	=1	=1	=1	=1
1r	0r	0r	1d	0r
1G	.	.	[1g	.
=2	=2	=2	=2	=2
1.c	1r	0r	2g]	0g
.	.	.	2f	.
.	1G	.	2e	.
2B	.	.	2d	.
=3	=3	=3	=3	=3
2.A	1.c	0r	2c	0a
.	.	.	1e	.
4G	.	.	.	.
1F	.	.	.	.
.	4B	.	2d	.
.	4A	.	.	.
=4	=4	=4	=4	=4
1E	2c	0r	0e	0g
.	2B	.	.	.
2C	1c	.	.	.
[2c	.	.	.	.
=5	=5	=5	=5	=5
4c]	2.A	0c	2r	0a
4B	.	.	.	.
4A	.	.	1e	.
4G	4B	.	.	.
1A	1c	.	.	.
.	.	.	2f#	.
=6	=6	=6	=6	=6
0G	2B	0d	2.g	0b
.	2.G	.	.	.
.	.	.	8f	.
.	.	.	8e	.
.	.	.	2d	.
.	4A	.	.	.
.	4B	.	[2g	.
.	4G	.	.	.
=7	=7	=7	=7	=7
0r	0A	0c	2g]	1.cc
.	.	.	4f	.
.	.	.	4e	.
.	.	.	1f#	.
.	.	.	.	2a
=8	=8	=8	=8	=8
1r	1G	0d	1g	1b
1G	2.g	.	2r	1r
.	.	.	[2g	.
.	4f	.	.	.
=9	=9	=9	=9	=9
2.c	4e	0e	2g]	0r
.	4d	.	.	.
.	2.c	.	1cc	.
4B	.	.	.	.
2A	.	.	.	.
.	4A	.	.	.
2G	4B	.	2b	.
.	4c	.	.	.
=10	=10	=10	=10	=10
2.F	2d	1.f	1a	1r
.	1c	.	.	.
4E	.	.	.	.
1D	.	.	1f	1dd
.	2B	2d	.	.
=11	=11	=11	=11	=11
2.C	0c	1e	2r	1.gg
.	.	.	1g	.
4D	.	.	.	.
2E	.	1r	.	.
2F	.	.	[2cc	2ff
=12	=12	=12	=12	=12
1G	1r	0r	2cc]	2ee
.	.	.	2b	2dd
1r	2r	.	2a	2cc
.	2G	.	2g	2b
=13	=13	=13	=13	=13
0r	2d	1r	2f	2a
.	2.G	.	2.g	2.b
.	.	1g	.	.
.	4A	.	4f	4a
.	4B	.	4d	[2g
.	4c	.	4e	.
=14	=14	=14	=14	=14
1r	1A	1.cc	1c	2g]
.	.	.	.	2f#
1G	2G	.	1d	1g
.	2d	2b	.	.
=15	=15	=15	=15	=15
2.c	2.e	2a	1c	0r
.	.	2g	.	.
4B	4d	.	.	.
2A	2c	2f	2r	.
2G	2B	2e	2g	.
=16	=16	=16	=16	=16
2F	2A	2d	2a	0r
4E	2B	2.e	1g	.
4D	.	.	.	.
2C	1c	.	.	.
.	.	4d	.	.
2E	.	[2c	2e	.
=17	=17	=17	=17	=17
1D	1r	2c]	2f	1dd
.	.	2B	2f	.
1C	2r	1c	2.e	1ee
.	2c	.	.	.
.	.	.	8d	.
.	.	.	8c	.
=18	=18	=18	=18	=18
1G	1d	0r	4B	2dd
.	.	.	4G	.
.	.	.	2g	2b
1A	2c	.	1e	1cc
.	2A	.	.	.
=19	=19	=19	=19	=19
2G	2B	0r	2r	2b
2E	1c	.	2g	2.ee
2F	.	.	1a	.
.	.	.	.	4dd
2F	2d	.	.	[2dd
=20	=20	=20	=20	=20
1E	1e	1g	2g	2dd]
.	.	.	2e	2cc#
1D	1A	1a	1f	1dd
=21	=21	=21	=21	=21
0r	1c	2g	2e	1r
.	.	2e	1a	.
.	1d	1f	.	2r
.	.	.	4g	2dd
.	.	.	4f	.
=22	=22	=22	=22	=22
0r	2c	2e	2g	1ee
.	2A	2.a	2c	.
.	2B	.	1d	2dd
.	.	4g	.	.
.	2B	[2g	.	2b
=23	=23	=23	=23	=23
1r	1A	2g]	2r	2cc
.	.	2f#	2c	2cc
1G	2G	1g	1d	4b
.	.	.	.	4cc
.	2g	.	.	4dd
.	.	.	.	4b
=24	=24	=24	=24	=24
1A	2e	1r	2c	1cc
.	2c	.	2A	.
2G	2d	2r	1B	1b
2E	2e	2g	.	.
=25	=25	=25	=25	=25
2F	2c	1a	2A	2r
2F	2d	.	1d	2a
1E	1G	2g	.	2b
.	.	2e	[2c	2cc
=26	=26	=26	=26	=26
1D	1r	2f	2c]	1dd
.	.	2f	2B	.
1C	2r	4e	1c	1g
.	.	4f	.	.
.	[2c	4g	.	.
.	.	4e	.	.
=27	=27	=27	=27	=27
2.F	2c]	1f	2.A	1r
.	2c	.	.	.
4G	.	.	4B	.
4A	1c	1e	4c	2r
4B	.	.	4d	.
[2c	.	.	4e	[2g
.	.	.	4c	.
=28	=28	=28	=28	=28
2c]	1G	2r	1d	2g]
2B	.	2d	.	2g
1A	2r	2e	1c	1cc
.	2c	2f	.	.
=29	=29	=29	=29	=29
1G	2d	1g	1r	1b
.	2.e	.	.	.
1r	.	1c	[1g	2.ee
.	4d	.	.	.
.	4c	.	.	.
.	4B	.	.	4dd
=30	=30	=30	=30	=30
1.C	2.c	1r	2g]	4ee
.	.	.	.	4ff
.	.	.	2g	2.gg
.	4d	.	.	.
.	1e	2r	1cc	.
.	.	.	.	4ff
2C	.	[2c	.	4ee
.	.	.	.	4dd
=31	=31	=31	=31	=31
1F	2.f	2c]	1a	4cc
.	.	.	.	4b
.	.	2c	.	1a
.	4g	.	.	.
1D	1a	1f	2r	.
.	.	.	[2a	[2dd
=32	=32	=32	=32	=32
1A	1a	1e	4a]	2dd]
.	.	.	4g	.
.	.	.	2e	2cc#
1D	1r	2.a	[1f	1dd
.	.	4g	.	.
=33	=33	=33	=33	=33
1r	1A	4a	2f]	0r
.	.	4b-	.	.
.	.	2.cc	4e	.
.	.	.	4d	.
2r	2A	.	2e	.
.	.	4b-	.	.
2D	[2d	4a	2f	.
.	.	4g	.	.
=34	=34	=34	=34	=34
2D	2d]	4f	1d	2r
.	.	4e	.	.
1G	1B	1d	.	1g
.	.	.	1r	.
2E	[2e	[2g	.	2g
=35	=35	=35	=35	=35
1A	2e]	2g]	1r	1cc
.	4d	2f#	.	.
.	4c	.	.	.
1G	1d	1g	2r	2b
.	.	.	[2d	[2dd
=36	=36	=36	=36	=36
2r	4G	0r	2d]	4dd]
.	4A	.	.	4cc
1G	4B	.	2d	4b
.	4c	.	.	4a
.	1d	.	[1g	1b
2G	.	.	.	.
=37	=37	=37	=37	=37
1c	1e	2r	2g]	2.cc
.	.	1c	2e	.
.	.	.	.	4dd
1A	1r	.	[1a	1ee
.	.	2c	.	.
=38	=38	=38	=38	=38
1d	0r	1f	2a]	2.a
.	.	.	4g	.
.	.	.	4f	4b
2.c	.	2e	2g	4cc
.	.	.	.	4dd
.	.	[2g	2e	[2ee
4B	.	.	.	.
=39	=39	=39	=39	=39
2G	1r	4g]	1g	4ee]
.	.	4f	.	4dd
2B-	.	4e	.	1dd
.	.	4d	.	.
1A	2r	1e	1a	.
.	[2A	.	.	2cc#
=40	=40	=40	=40	=40
1.D	2A]	2.f	1r	0dd
.	2A	.	.	.
.	.	4g	.	.
.	1d	1a	1f	.
2D	.	.	.	.
=41	=41	=41	=41	=41
1G	2B	2.d	1g	0r
.	2.d	.	.	.
.	.	4e	.	.
2.F	.	4f	2a	.
.	4c	4g	.	.
.	4A	[2a	2f	.
4E	4B	.	.	.
=42	=42	=42	=42	=42
2C	4c	4a]	2e	1r
.	4B	4g	.	.
2E	4A	1g	2c	.
.	4G	.	.	.
1D	1A	.	1d	[1dd
.	.	2f#	.	.
=43	=43	=43	=43	=43
2.G	[0G	[0g	1.B	2dd]
.	.	.	.	2dd
4F	.	.	.	.
2.E	.	.	.	2.gg
.	.	.	2B	.
4D	.	.	.	4ff
=44	=44	=44	=44	=44
2C	0G]	0g]	2c	2ee
2BB	.	.	2d	2dd
1C	.	.	1e	1cc
=45	=45	=45	=45	=45
[0G	[0G	[0g	[0d	[0b
=46	=46	=46	=46	=46
0G]	0G]	0g]	0d]	0b]
==	==	==	==	==
*-	*-	*-	*-	*-
!!!CDT: 1525/^1526/-1594/2/2
!!!OCY: Italia
!!!AGN: Mass (Canonic)
!!!AST: renaissance, vocal
!!!ASW: Hymn
!!!PWK: Masses, Book I
!!!RNB: Cadence finals: C
!!!YOR: Le Opere Complete, v. 1, p. 125
!!!YOO: Rome, Italy: Fratelli Scalera
!!!END: 1992//
!!!EED: John Miller
!!!YEC: Copyright 2000, John Miller
!!!YEN: United States of America
!!!YEM: Rights to all derivative electronic formats reserved.
!!!YEM: Refer to licensing agreement for further details.
!!!YEM: This file must be accompanied by the licensing agreement.
!!!YEM: A copy of the licensing agreement may be found at http://www.music-cog.ohio-state.edu/HumdrumDatabases/Palestrina/license.txt
!!!EMD: converted to Humdrum by Bret Aarden
